X:1
T:Title
%%score { 1 | ( 2 3 ) }
L:1/8
M:6/8
K:G
V:1 treble nm="Grand Piano"
V:2 bass 
V:3 bass 
V:1
 z3 z2[Q:1/4=100] D | D2 G G2 [DF] | [CE]2 [EA] [EA]2 [EG] | F2 F E2 F |[M:5/8] [CE]3 [B,D]2 | %5
[M:1/8] [B,D] |[M:3/4] [B,D]2 [B,G] [B,G]2 [G,DF] | [G,CE]2 [CEA] [CEA]2 [EAc] | %8
 [DGB]2 [B,DG] [A,DF]2 [CDA] | [B,DG]6 | B2 c d3 | G2 A B3 | B>A GG FG | A3 .D3 | B2 [Ac] [Bd]3 | %15
 G2 A B3 | [Ec]>[Ec] [Ge] [Gd]2 [DGB] |[M:5/8] [CFA]3 [B,DG]2 |] %18
V:2
 z3 z2 [G,B,] | [G,B,]2 [G,B,D] [G,B,D]2 [B,,G,] | [C,G,]2 [C,C] [C,C]2 [C,C] | %3
 [D,A,D]2 [D,A,D] [D,F,C]2 [D,A,D] |[M:5/8] [G,,G,]-[G,,G,]- [G,,G,]3 |[M:1/8] [G,,G,] | %6
[M:3/4] [G,,G,]2 [G,,D,] [G,,D,]2 B,, | C,2 C, C,2 C, | D,2 D, D,2 D, | G,,6 | %10
 [G,G]2 [G,A,G] [G,B,G]3 | [G,B,D]2 [G,CF] [G,DG]3 | %12
 [G,DG]>[K:bass][G,CD] [G,B,D][G,D]- [G,A,D][G,B,] | [D,F,D]3 .[D,F,]3 | [G,DG]2 [G,D] [G,D]3 | %15
 [G,B,]2 [G,C][K:bass] [G,D]3 | [C,G,]>[C,G,] [C,C] [D,B,]2 D, |[M:5/8] D,3 G,,2 |] %18
V:3
 x6 | x6 | x6 | x6 |[M:5/8] x5 |[M:1/8] x |[M:3/4] x6 | x6 | x6 | x6 | x6 | x6 | %12
 z2[K:bass] z B, z2 | x6 | x6 | x3[K:bass] x3 | x6 |[M:5/8] x5 |] %18

